img/svg/arr-r.svg

<svg xmlns="http://www.w3.org/2000/svg" preserveAspectRatio="xMidYMid" width="15" height="8" viewBox="0 0 15 8"><defs><style>.cls-2 { fill: #a9aaaa; }</style></defs><path d="M13.646 4.697l-.122-.123-3.78 3.78-.754-.754 3.779-3.78-3.123-3.123.708-.707 4 4-.708.707zm-1.646-.353h-12v-1h12v1z" id="path-1" class="cls-2" fill-rule="evenodd"/></svg>

<svg xmlns="http://www.w3.org/2000/svg" xmlns:xlink="http://www.w3.org/1999/xlink" preserveAspectRatio="xMidYMid" width="15" height="8" viewBox="0 0 15 8">
  <defs>
    <style>

      .cls-2 {
        fill: #a9aaaa;
      }
    </style>
  </defs>
  <path d="M13.646,4.697 C13.646,4.697 13.524,4.574 13.524,4.574 C13.524,4.574 9.744,8.354 9.744,8.354 C9.744,8.354 8.990,7.600 8.990,7.600 C8.990,7.600 12.769,3.820 12.769,3.820 C12.769,3.820 9.646,0.697 9.646,0.697 C9.646,0.697 10.354,-0.010 10.354,-0.010 C10.354,-0.010 14.354,3.990 14.354,3.990 C14.354,3.990 13.646,4.697 13.646,4.697 ZM12.000,4.344 C12.000,4.344 0.000,4.344 0.000,4.344 C0.000,4.344 0.000,3.344 0.000,3.344 C0.000,3.344 12.000,3.344 12.000,3.344 C12.000,3.344 12.000,4.344 12.000,4.344 Z" id="path-1" class="cls-2" fill-rule="evenodd"/>
</svg>
